dist/assets/img/svg/adv-02.svg

<svg width="108" height="108" viewBox="0 0 108 108" fill="none" xmlns="http://www.w3.org/2000/svg">
<g clip-path="url(#clip0_68_311)">
<path d="M105.796 35.2653C107.265 35.2653 108 34.4571 108 32.8408C108 31.2245 107.265 30.4163 105.796 30.4163H96.3184V25.7878C96.3184 21.8204 94.9592 18.4776 92.2408 15.7592C89.5224 13.0408 86.1796 11.6816 82.2122 11.6816H77.5837V2.20408C77.5837 0.734694 76.7755 0 75.1592 0C73.5429 0 72.7347 0.734694 72.7347 2.20408V11.6816H63.4776V2.20408C63.4776 0.734694 62.6694 0 61.0531 0C59.4367 0 58.6286 0.734694 58.6286 2.20408V11.6816H49.3714V2.20408C49.3714 0.734694 48.5633 0 46.9469 0C45.3306 0 44.5224 0.734694 44.5224 2.20408V11.6816H35.2653V2.20408C35.2653 0.734694 34.4571 0 32.8408 0C31.2245 0 30.4163 0.734694 30.4163 2.20408V11.6816H25.7878C21.8204 11.6816 18.4776 13.0408 15.7592 15.7592C13.0408 18.4776 11.6816 21.8204 11.6816 25.7878V30.4163H2.20408C0.734694 30.4163 0 31.2245 0 32.8408C0 34.4571 0.734694 35.2653 2.20408 35.2653H11.6816V44.5224H2.20408C0.734694 44.5224 0 45.3306 0 46.9469C0 48.5633 0.734694 49.3714 2.20408 49.3714H11.6816V58.6286H2.20408C0.734694 58.6286 0 59.4367 0 61.0531C0 62.6694 0.734694 63.4776 2.20408 63.4776H11.6816V72.7347H2.20408C0.734694 72.7347 0 73.5429 0 75.1592C0 76.7755 0.734694 77.5837 2.20408 77.5837H11.6816V82.2122C11.6816 86.1796 13.0408 89.5224 15.7592 92.2408C18.4776 94.9592 21.8204 96.3184 25.7878 96.3184H30.4163V105.796C30.4163 107.265 31.2245 108 32.8408 108C34.4571 108 35.2653 107.265 35.2653 105.796V96.3184H44.5224V105.796C44.5224 107.265 45.3306 108 46.9469 108C48.5633 108 49.3714 107.265 49.3714 105.796V96.3184H58.6286V105.796C58.6286 107.265 59.4367 108 61.0531 108C62.6694 108 63.4776 107.265 63.4776 105.796V96.3184H72.7347V105.796C72.7347 107.265 73.5429 108 75.1592 108C76.7755 108 77.5837 107.265 77.5837 105.796V96.3184H82.2122C86.1796 96.3184 89.5224 94.9592 92.2408 92.2408C94.9592 89.5224 96.3184 86.1796 96.3184 82.2122V77.5837H105.796C107.265 77.5837 108 76.7755 108 75.1592C108 73.5429 107.265 72.7347 105.796 72.7347H96.3184V63.4776H105.796C107.265 63.4776 108 62.6694 108 61.0531C108 59.4367 107.265 58.6286 105.796 58.6286H96.3184V49.3714H105.796C107.265 49.3714 108 48.5633 108 46.9469C108 45.3306 107.265 44.5224 105.796 44.5224H96.3184V35.2653H105.796ZM88.8408 82.2122C88.8408 85.298 85.298 88.8408 82.2122 88.8408H25.7878C22.702 88.8408 19.1592 85.298 19.1592 82.2122V25.7878C19.1592 22.702 22.702 19.1592 25.7878 19.1592H82.2122C85.298 19.1592 88.8408 22.702 88.8408 25.7878V82.2122ZM72.7347 30.4163H35.2653C32.0326 30.4163 30.4163 32.0326 30.4163 35.2653V72.7347C30.4163 75.9673 32.0326 77.5837 35.2653 77.5837H72.7347C75.9673 77.5837 77.5837 75.9673 77.5837 72.7347V35.2653C77.5837 32.0326 75.9673 30.4163 72.7347 30.4163ZM70.1061 70.1061H37.8939V37.8939H70.1061V70.1061Z" fill="url(#paint0_linear_68_311)"/>
</g>
<defs>
<linearGradient id="paint0_linear_68_311" x1="0" y1="0" x2="99.1198" y2="115.613" gradientUnits="userSpaceOnUse">
<stop stop-color="#4091DB"/>
<stop offset="1" stop-color="#35D0FA"/>
</linearGradient>
<clipPath id="clip0_68_311">
<rect width="108" height="108" fill="white"/>
</clipPath>
</defs>
</svg>

<svg width="108" height="108" fill="none" xmlns="http://www.w3.org/2000/svg"><g clip-path="url(#clip0_68_311)"><path d="M105.796 35.265c1.469 0 2.204-.808 2.204-2.424 0-1.617-.735-2.425-2.204-2.425h-9.478v-4.628c0-3.968-1.359-7.31-4.077-10.029-2.719-2.718-6.061-4.077-10.029-4.077h-4.628V2.204C77.584.734 76.775 0 75.159 0c-1.616 0-2.424.735-2.424 2.204v9.478h-9.257V2.204C63.478.734 62.669 0 61.053 0c-1.616 0-2.424.735-2.424 2.204v9.478H49.37V2.204C49.371.734 48.563 0 46.947 0s-2.425.735-2.425 2.204v9.478h-9.257V2.204C35.265.734 34.457 0 32.841 0c-1.617 0-2.425.735-2.425 2.204v9.478h-4.628c-3.968 0-7.31 1.359-10.029 4.077-2.718 2.719-4.077 6.061-4.077 10.029v4.628H2.204c-1.47 0-2.204.808-2.204 2.425 0 1.616.735 2.424 2.204 2.424h9.478v9.257H2.204c-1.47 0-2.204.809-2.204 2.425 0 1.616.735 2.424 2.204 2.424h9.478v9.258H2.204c-1.47 0-2.204.808-2.204 2.424 0 1.616.735 2.425 2.204 2.425h9.478v9.257H2.204c-1.47 0-2.204.808-2.204 2.424 0 1.616.735 2.425 2.204 2.425h9.478v4.628c0 3.968 1.359 7.31 4.077 10.029 2.719 2.718 6.061 4.077 10.029 4.077h4.628v9.478c0 1.469.808 2.204 2.425 2.204 1.616 0 2.424-.735 2.424-2.204v-9.478h9.257v9.478c0 1.469.809 2.204 2.425 2.204 1.616 0 2.424-.735 2.424-2.204v-9.478h9.258v9.478c0 1.469.808 2.204 2.424 2.204 1.616 0 2.425-.735 2.425-2.204v-9.478h9.257v9.478c0 1.469.808 2.204 2.424 2.204 1.616 0 2.425-.735 2.425-2.204v-9.478h4.628c3.968 0 7.31-1.359 10.029-4.077 2.718-2.719 4.077-6.061 4.077-10.029v-4.628h9.478c1.469 0 2.204-.809 2.204-2.425 0-1.616-.735-2.424-2.204-2.424h-9.478v-9.257h9.478c1.469 0 2.204-.809 2.204-2.425 0-1.616-.735-2.424-2.204-2.424h-9.478V49.37h9.478c1.469 0 2.204-.808 2.204-2.424 0-1.616-.735-2.425-2.204-2.425h-9.478v-9.257h9.478zM88.841 82.212c0 3.086-3.543 6.629-6.629 6.629H25.788c-3.086 0-6.629-3.543-6.629-6.629V25.788c0-3.086 3.543-6.629 6.629-6.629h56.424c3.086 0 6.629 3.543 6.629 6.629v56.424zM72.735 30.416h-37.47c-3.232 0-4.849 1.617-4.849 4.85v37.469c0 3.232 1.617 4.849 4.85 4.849h37.469c3.232 0 4.849-1.617 4.849-4.85V35.266c0-3.232-1.617-4.849-4.85-4.849zm-2.629 39.69H37.894V37.894h32.212v32.212z" fill="url(#paint0_linear_68_311)"/></g><defs><linearGradient id="paint0_linear_68_311" x1="0" y1="0" x2="99.12" y2="115.613" gradientUnits="userSpaceOnUse"><stop stop-color="#4091DB"/><stop offset="1" stop-color="#35D0FA"/></linearGradient><clipPath id="clip0_68_311"><path fill="#fff" d="M0 0h108v108H0z"/></clipPath></defs></svg>19.1592 25.7878 19.1592H82.2122C85.298 19.1592 88.8408 22.702 88.8408 25.7878V82.2122ZM72.7347 30.4163H35.2653C32.0326 30.4163 30.4163 32.0326 30.4163 35.2653V72.7347C30.4163 75.9673 32.0326 77.5837 35.2653 77.5837H72.7347C75.9673 77.5837 77.5837 75.9673 77.5837 72.7347V35.2653C77.5837 32.0326 75.9673 30.4163 72.7347 30.4163ZM70.1061 70.1061H37.8939V37.8939H70.1061V70.1061Z" fill="url(#paint0_linear_68_311)"/>
</g>
<defs>
<linearGradient id="paint0_linear_68_311" x1="0" y1="0" x2="99.1198" y2="115.613" gradientUnits="userSpaceOnUse">
<stop stop-color="#4091DB"/>
<stop offset="1" stop-color="#35D0FA"/>
</linearGradient>
<clipPath id="clip0_68_311">
<rect width="108" height="108" fill="white"/>
</clipPath>
</defs>
</svg>
